X:13
T:The Royal Forester
M:6/8
L:1/8
K:Ddor
c | "Dm" d2d "Am" ABc | "Dm" d2ef2e | d2c "Am" A2c | "Dm" d3c2d |
"Am" e2d "Dm" d2d | "Am" c2AA2c | "Dm" d2AA2G | "C" G3 G2E |
"Dm" D2D CDD | D2E EFG | A2A "C" GGE | "Dm" D3-D2 :|]
W:
W: 1. I am a forester of this land
W: As you may plainly see,
W: It's the mantle of your maidenhead
W: That I would have from thee.
W: With me ru-ron-rority ri-no-ro-rity 
W: ri-no-ro-rity-an
W:
W: 2. He's taken her by the milk-white hand
W: And by the leylan sleeve,
W: He's lain her down upon her back
W: And asked no man's leave.
W: With me ru-ron-rority ri-no-ro-rity 
W: ri-no-ro-rity-an
W:
W: 3. “Now since you've lain me down young man,
W: You must take me up again,
W: And since you've had your wills of me,
W: Come tell to me your name.”
W: With me ru-ron-rority ri-no-ro-rity 
W: ri-no-ro-rity-an
W:
W: 4. “Some call me Jim, some call me John,
W: Begad it's all the same,
W: But when I'm in the king's high court
W: Erwilian is my name.”
W: With me ru-ron-rority ri-no-ro-rity 
W: ri-no-ro-rity-an
W:
W: 5. She being a good scholar,
W: She's spelt it o'er again,
W: “Erwilian, that's a Latin word,
W: But Willy is your name.”
W: With me ru-ron-rority ri-no-ro-rity 
W: ri-no-ro-rity-an
W:
W: 6. Now when he heard his name pronounced,
W: He mounted his high horse.
W: She's belted up her petticoat
W: And followed with all her force.
W: With me ru-ron-rority ri-no-ro-rity 
W: ri-no-ro-rity-an
W:
W: 7. He rode and she ran
W: A long summer day,
W: Until they came by the river
W: That's commonly called the Tay.
W: With me ru-ron-rority ri-no-ro-rity 
W: ri-no-ro-rity-an
W:
W: 8. “The water, it's too deep, my love,
W: I'm afraid you cannot wade.”
W: But afore he'd ridden his horse well in
W: She was on the other side.
W: With me ru-ron-rority ri-no-ro-rity 
W: ri-no-ro-rity-an
W:
W: 9. She went up to the king's high door,
W: She knocked and she went in,
W: Said, “One of your chancellor's robbed me
W: And he's robbed me right and clean.”
W: With me ru-ron-rority ri-no-ro-rity 
W: ri-no-ro-rity-an
W:
W: 10. “Has he robbed you of your mantle?
W: Has he robbed you of your ring?”
W: “No, he's robbed me of my maidenhead
W: And another I can't find.”
W: With me ru-ron-rority ri-no-ro-rity 
W: ri-no-ro-rity-an
W:
W: 11. “If he be a married man
W: Then hanged he shall be,
W: And if he be a single man
W: He shall marry thee.?”
W: With me ru-ron-rority ri-no-ro-rity 
W: ri-no-ro-rity-an
W:
W: 12. This couple they got married,
W: They live in Huntley town.
W: She's the Earl of Airlie's daughter,
W: And he's the blacksmith's son.
W: With me ru-ron-rority ri-no-ro-rity 
W: ri-no-ro-rity-an
%%newpage

